packages/radix-icons/twoTone/15/section.svg

<svg width="15" height="15" fill="none" xmlns="http://www.w3.org/2000/svg">
  <path
    fill-rule="evenodd"
    clip-rule="evenodd"
    d="M2 2.5C2 2.22386 2.22386 2 2.5 2H4.5C4.77614 2 5 2.22386 5 2.5C5 2.77614 4.77614 3 4.5 3H2.5C2.22386 3 2 2.77614 2 2.5ZM2 6C2 5.44772 2.44772 5 3 5H12C12.5523 5 13 5.44772 13 6V9C13 9.55228 12.5523 10 12 10H3C2.44771 10 2 9.55228 2 9V6ZM6.5 2C6.22386 2 6 2.22386 6 2.5C6 2.77614 6.22386 3 6.5 3H8.5C8.77614 3 9 2.77614 9 2.5C9 2.22386 8.77614 2 8.5 2H6.5ZM10 2.5C10 2.22386 10.2239 2 10.5 2H12.5C12.7761 2 13 2.22386 13 2.5C13 2.77614 12.7761 3 12.5 3H10.5C10.2239 3 10 2.77614 10 2.5ZM2.5 12C2.22386 12 2 12.2239 2 12.5C2 12.7761 2.22386 13 2.5 13H4.5C4.77614 13 5 12.7761 5 12.5C5 12.2239 4.77614 12 4.5 12H2.5ZM6 12.5C6 12.2239 6.22386 12 6.5 12H8.5C8.77614 12 9 12.2239 9 12.5C9 12.7761 8.77614 13 8.5 13H6.5C6.22386 13 6 12.7761 6 12.5ZM10.5 12C10.2239 12 10 12.2239 10 12.5C10 12.7761 10.2239 13 10.5 13H12.5C12.7761 13 13 12.7761 13 12.5C13 12.2239 12.7761 12 12.5 12H10.5Z"
    fill="currentColor"
    opacity=".2"
  />
  <path
    fill-rule="evenodd"
    clip-rule="evenodd"
    d="M2 2.5C2 2.22386 2.22386 2 2.5 2H4.5C4.77614 2 5 2.22386 5 2.5C5 2.77614 4.77614 3 4.5 3H2.5C2.22386 3 2 2.77614 2 2.5ZM12 6H3L3 9H12V6ZM3 5C2.44772 5 2 5.44772 2 6V9C2 9.55228 2.44771 10 3 10H12C12.5523 10 13 9.55228 13 9V6C13 5.44772 12.5523 5 12 5H3ZM6.5 2C6.22386 2 6 2.22386 6 2.5C6 2.77614 6.22386 3 6.5 3H8.5C8.77614 3 9 2.77614 9 2.5C9 2.22386 8.77614 2 8.5 2H6.5ZM10 2.5C10 2.22386 10.2239 2 10.5 2H12.5C12.7761 2 13 2.22386 13 2.5C13 2.77614 12.7761 3 12.5 3H10.5C10.2239 3 10 2.77614 10 2.5ZM2.5 12C2.22386 12 2 12.2239 2 12.5C2 12.7761 2.22386 13 2.5 13H4.5C4.77614 13 5 12.7761 5 12.5C5 12.2239 4.77614 12 4.5 12H2.5ZM6 12.5C6 12.2239 6.22386 12 6.5 12H8.5C8.77614 12 9 12.2239 9 12.5C9 12.7761 8.77614 13 8.5 13H6.5C6.22386 13 6 12.7761 6 12.5ZM10.5 12C10.2239 12 10 12.2239 10 12.5C10 12.7761 10.2239 13 10.5 13H12.5C12.7761 13 13 12.7761 13 12.5C13 12.2239 12.7761 12 12.5 12H10.5Z"
    fill="currentColor"
  />
</svg>

<svg width="15" height="15" fill="none" xmlns="http://www.w3.org/2000/svg">
  <path
    fill-rule="evenodd"
    clip-rule="evenodd"
    d="M2 2.5a.5.5 0 01.5-.5h2a.5.5 0 010 1h-2a.5.5 0 01-.5-.5zM2 6a1 1 0 011-1h9a1 1 0 011 1v3a1 1 0 01-1 1H3a1 1 0 01-1-1V6zm4.5-4a.5.5 0 000 1h2a.5.5 0 000-1h-2zm3.5.5a.5.5 0 01.5-.5h2a.5.5 0 010 1h-2a.5.5 0 01-.5-.5zM2.5 12a.5.5 0 000 1h2a.5.5 0 000-1h-2zm3.5.5a.5.5 0 01.5-.5h2a.5.5 0 010 1h-2a.5.5 0 01-.5-.5zm4.5-.5a.5.5 0 000 1h2a.5.5 0 000-1h-2z"
    fill="currentColor"
    opacity=".2"
  />
  <path
    fill-rule="evenodd"
    clip-rule="evenodd"
    d="M2 2.5a.5.5 0 01.5-.5h2a.5.5 0 010 1h-2a.5.5 0 01-.5-.5zM12 6H3v3h9V6zM3 5a1 1 0 00-1 1v3a1 1 0 001 1h9a1 1 0 001-1V6a1 1 0 00-1-1H3zm3.5-3a.5.5 0 000 1h2a.5.5 0 000-1h-2zm3.5.5a.5.5 0 01.5-.5h2a.5.5 0 010 1h-2a.5.5 0 01-.5-.5zM2.5 12a.5.5 0 000 1h2a.5.5 0 000-1h-2zm3.5.5a.5.5 0 01.5-.5h2a.5.5 0 010 1h-2a.5.5 0 01-.5-.5zm4.5-.5a.5.5 0 000 1h2a.5.5 0 000-1h-2z"
    fill="currentColor"
  />
</svg>
